X:200
T: Gleanntan Reel
S: "Johnny O'Leary of Sliabh Luachra" (#207)
Z: B.Black
L: 1/8
M: 4/4
R: reel
K: Edor
dc|BE E2 BEAF|DzFD ADFA|BE E2 BAFA|Bdeg f2 ed|
B2 EE BEAF|DEFD ADFA|BE E2 BAF/G/A|Bdeg fedf||
e/f/efe befe|defd adfd|e/f/efe befe|defa beed|
e/f/efe befe|defg a2 ga|bggf gfed|B/c/deg f/g/fed||
